COLOR/action 16/16/mail-sent.svg

<svg enable-background="new" height="16" viewBox="0 0 16 16" width="16" xmlns="http://www.w3.org/2000/svg"><g fill="none" transform="translate(0 -32)"><g stroke-width=".156241"><path d="m.5 34.875427v10.624573l14.999176-.000155v-10.624431l-7.4995884 6.874623z" fill="#d0d0cd"/><path d="m.5 45.499845h14.999176l-6.22044-6.14232c-.8299543-.829953-1.6589707-.840732-2.4998625 0z" fill="#deddda"/><path d="m8.0328672 38.731152c-.4160718-.0012-.8335482.206085-1.2538375.62653l-6.2790297 6.142163h.3195138l5.9593597-5.829836c.8408918-.840736 1.6699082-.829953 2.4998625 0l5.90405 5.829836h.31639l-6.22044-6.14232c-.4149767-.414975-.8297971-.624965-1.2458688-.626527z" fill="#edeceb"/><path d="m.5 44.917395v.581642h15v-.581642z" fill="#000" opacity=".2"/></g><path d="m15.479552 34.875656-6.200394 6.120873c-.4149764.414978-.8312775.62552-1.2473493.627082-.4160717.0012-.8316041-.206637-1.2518934-.627082l-6.259467-6.120873z" fill="#deddda"/><path d="m.5204483 34.874983 6.259467 6.120873c.4202893.420444.8358217.628246 1.2518934.627083.4160718-.0016.8323729-.212105 1.2473493-.627083l6.200394-6.120873h-.23402l-5.966374 5.889124c-.4149764.414979-.8312775.625521-1.2473493.627084-.4160717.001163-.8316041-.206639-1.2518934-.627084l-6.0231749-5.889124z" fill="#edeceb"/><path d="m.5204483 34.874983.5952742.581642h13.7753715l.588458-.581642z" fill="#fff" opacity=".3"/><g enable-background="new" fill="#45a925" stroke-width=".642857" transform="matrix(1 0 0 -1 -363.91088 108.571596)"><g enable-background="new" fill="#45a925"><path d="m373.91088 64.071881 6 4.5-6 4.5v-3h-6v-3h6z"/><path d="m4.1484375 8 3.75 5 3.7500005-5h-.375l-3.3750005 4.5-3.375-4.5z" opacity=".2" transform="matrix(0 1.2 1.2 0 364.31088 59.093471)"/></g><g enable-background="new" fill="#e6e6e6"><path d="m373.91088 64.071881v.5l5.66602 4.25.33398-.25zm-6 3v.5h6v-.5z" fill="#000" opacity=".2"/><path d="m373.91088 73.071881v-.5l5.66602-4.25.33398.25zm-6-3v-.5h6v.5z" fill="#fff" opacity=".3"/></g></g></g></svg>

<?xml version="1.0" encoding="UTF-8" standalone="no"?>
<svg
   xmlns:dc="http://purl.org/dc/elements/1.1/"
   xmlns:cc="http://creativecommons.org/ns#"
   xmlns:rdf="http://www.w3.org/1999/02/22-rdf-syntax-ns#"
   xmlns:svg="http://www.w3.org/2000/svg"
   xmlns="http://www.w3.org/2000/svg"
   xmlns:sodipodi="http://sodipodi.sourceforge.net/DTD/sodipodi-0.dtd"
   xmlns:inkscape="http://www.inkscape.org/namespaces/inkscape"
   enable-background="new"
   height="16"
   viewBox="0 0 16 16"
   width="16"
   version="1.1"
   id="svg30"
   sodipodi:docname="mail-sent.svg"
   inkscape:version="0.92.4 (5da689c313, 2019-01-14)">
  <metadata
     id="metadata36">
    <rdf:RDF>
      <cc:Work
         rdf:about="">
        <dc:format>image/svg+xml</dc:format>
        <dc:type
           rdf:resource="http://purl.org/dc/dcmitype/StillImage" />
      </cc:Work>
    </rdf:RDF>
  </metadata>
  <defs
     id="defs34" />
  <sodipodi:namedview
     pagecolor="#ffffff"
     bordercolor="#666666"
     borderopacity="1"
     objecttolerance="10"
     gridtolerance="10"
     guidetolerance="10"
     inkscape:pageopacity="0"
     inkscape:pageshadow="2"
     inkscape:window-width="1920"
     inkscape:window-height="1016"
     id="namedview32"
     showgrid="false"
     inkscape:zoom="14.75"
     inkscape:cx="8"
     inkscape:cy="8"
     inkscape:window-x="0"
     inkscape:window-y="27"
     inkscape:window-maximized="1"
     inkscape:current-layer="g28" />
  <g
     fill="none"
     transform="translate(0 -32)"
     id="g28">
    <path
       inkscape:connector-curvature="0"
       id="path38"
       d="M 0.5,34.875427 V 45.5 l 14.999176,-1.55e-4 V 34.875414 l -7.4995884,6.874623 z"
       style="fill:#d0d0cd;stroke-width:0.15624134;enable-background:new" />
    <path
       inkscape:connector-curvature="0"
       id="path44"
       d="m 0.5,45.499845 h 14.999176 l -6.22044,-6.14232 c -0.8299543,-0.829953 -1.6589707,-0.840732 -2.4998625,0 z"
       style="fill:#deddda;stroke-width:0.15624134;enable-background:new" />
    <path
       inkscape:connector-curvature="0"
       id="path46"
       d="m 8.0328672,38.731152 c -0.4160718,-0.0012 -0.8335482,0.206085 -1.2538375,0.62653 L 0.5,45.499845 h 0.3195138 l 5.9593597,-5.829836 c 0.8408918,-0.840736 1.6699082,-0.829953 2.4998625,0 l 5.90405,5.829836 h 0.31639 l -6.22044,-6.14232 C 8.8637593,38.94255 8.4489389,38.73256 8.0328672,38.730998 Z"
       style="fill:#edeceb;stroke-width:0.15624134;enable-background:new" />
    <path
       style="opacity:0.2;fill:#000000;fill-opacity:1;stroke-width:0.15624134;enable-background:new"
       d="m 0.5,44.917395 v 0.581642 h 15 v -0.581642 z"
       id="path866"
       inkscape:connector-curvature="0" />
    <path
       style="opacity:1;fill:#deddda;fill-opacity:1;stroke:none;stroke-width:0.34898517;stroke-linecap:round;stroke-miterlimit:4;stroke-dasharray:none;stroke-opacity:1;enable-background:new"
       d="M 15.479552,34.875656 9.279158,40.996529 C 8.8641816,41.411507 8.4478805,41.622049 8.0318087,41.623611 7.615737,41.624811 7.2002046,41.416974 6.7799153,40.996529 L 0.5204483,34.875656 Z"
       id="path876"
       inkscape:connector-curvature="0" />
    <path
       style="opacity:1;fill:#edeceb;fill-opacity:1;stroke:none;stroke-width:0.34898517;stroke-linecap:round;stroke-miterlimit:4;stroke-dasharray:none;stroke-opacity:1;enable-background:new"
       d="m 0.5204483,34.874983 6.259467,6.120873 c 0.4202893,0.420444 0.8358217,0.628246 1.2518934,0.627083 0.4160718,-0.0016 0.8323729,-0.212105 1.2473493,-0.627083 l 6.200394,-6.120873 h -0.23402 L 9.279158,40.764107 C 8.8641816,41.179086 8.4478805,41.389628 8.0318087,41.391191 7.615737,41.392354 7.2002046,41.184552 6.7799153,40.764107 L 0.7567404,34.874983 Z"
       id="path881"
       inkscape:connector-curvature="0" />
    <path
       style="opacity:0.3;fill:#ffffff;fill-opacity:1;stroke:none;stroke-width:0.34898517;stroke-linecap:round;stroke-miterlimit:4;stroke-dasharray:none;stroke-opacity:1;enable-background:new"
       d="m 0.5204483,34.874983 0.5952742,0.581642 H 14.891094 l 0.588458,-0.581642 z"
       id="path888"
       inkscape:connector-curvature="0" />
    <g
       enable-background="new"
       fill="#45a925"
       stroke-width=".642857"
       transform="matrix(1 0 0 -1 -363.91088 108.571596)"
       id="g22">
      <g
         enable-background="new"
         fill="#45a925"
         id="g14">
        <path
           d="m373.91088 64.071881 6 4.5-6 4.5v-3h-6v-3h6z"
           id="path10" />
        <path
           d="m4.1484375 8 3.75 5 3.7500005-5h-.375l-3.3750005 4.5-3.375-4.5z"
           opacity=".2"
           transform="matrix(0 1.2 1.2 0 364.31088 59.093471)"
           id="path12" />
      </g>
      <g
         enable-background="new"
         fill="#e6e6e6"
         id="g20">
        <path
           d="m373.91088 64.071881v.5l5.66602 4.25.33398-.25zm-6 3v.5h6v-.5z"
           fill="#000"
           opacity=".2"
           id="path16" />
        <path
           d="m373.91088 73.071881v-.5l5.66602-4.25.33398.25zm-6-3v-.5h6v.5z"
           fill="#fff"
           opacity=".3"
           id="path18" />
      </g>
    </g>
  </g>
</svg>
